X: 5301
T: Brown Braes Of Fintown, The
R: hornpipe
M: 4/4
K: Dmajor
fe|:dcdA FABA|GFED CEA,2|FADF GECE|1 DFAd f<dce:|2 (3DED CE D2FA||
dA^GA BAFA|GFED CEA,2|FADF GECE|DFAd f<dce|
dcdA FABA|GFED CEA,2|FADF GECE|(3DED CE D2FG|
A^GAd fAdf|gfga gbaf|gbaf fedf|(3efe (3dcB A2FA|
dcde fdef|gfga gbaf|fedf edce|dfec d2FA|
dcde fdef|gfga gbaf|gbaf fedf|(3efe (3dcB A2FA|
dcde fdef|gfga gbaf|fedf edce|dfec d2||

